X:3
T:Bus Stop
Z:to be played occasionally in place of the usual A's
M:C|
R:reel
K:Amin
%%textfont       Times-Roman 10.0
%%text to be played occasionally in place of the usual A's
%%textfont       Times-Bold 10.0
%%text alternate A
A2e2 d2c2| A3B- B2 z2| A2e2 d2c2| e3^f- f2z2|
A2e2 d2c2| A4 G4| F4 G4|1 A4 z4 :|2 A2B2 c2d2|]
